!!!!SEGMENT: pl-kk--i-545--004_anonim--4-tantum-ergo-sacramentum.krn
!!!cenid: 18xx:4481
!!!COM: Anonim
!!!COM-rismID: pe30004985
!!!CDT:
!!!CNT:
!!!OTL: 4. Tantum ergo sacramentum
!!!PDT:
!!!AGN: Sacred
!!!YEC: Copyright 2022 Narodowy Instytut Fryderyka Chopina (https://polishscores.org)
!!!YEM: License CC-BY-4.0 (https://creativecommons.org/licenses/by/4.0)
!!!SMS-siglum: PL-Kk
!!!SMS-shelfmark: I.545
!!!SMS-variant:
!!!SMS-altvar:
!!!SMS-shelfwork: 004 W
!!!NIFC-rismSourceID: 1001210831
!!!NIFC-rismChildID: 1001210836
!!!NIFC-islandoraID: pl-kk:17058
!!!URL-pdf-islandora: https://repozytorium.nifc.pl/islandora/object/pl-kk%3A17058/datastream/PDF/view
!!!URL-scan: https://polish.musicsources.pl/pl/lokalizacje/galeria/rekopisy/7172/4 @EN{Scan on Polish Music Sources Website} @PL{Skany w portalu Dziedzictwo Muzyki Polskiej w otwartym dostępie}
!!!IIIF:
!!!ONB-nifc: UWAGA: 3r.
!!!AIN: 1 alto 1 bass 1 soprn 1 tenor
!!!key: E-
**kern	**kern	**text
*part2	*part1	*part1
*staff2	*staff1	*staff1
*ICvox	*ICvox	*
*Itenor&Ibass	*Isoprn&Ialto	*
*I"[Voci]	*I"[Voci]	*
*clefF4	*clefG2	*
*k[b-e-a-]	*k[b-e-a-]	*
*E-:	*E-:	*
*M3/4	*M3/4	*
=1	=1	=1
*	*^	*
2E-\	(4b-/	2g\	Tan-
.	4ee-/)	.	.
4E-\	4dd/	4b-\	-tum
=2	=2	=2	=2
*^	*	*	*
2E- 2AA-/	2AA-\	(4dd/	(4b-\	er-
.	.	4cc/)	4a-\)	.
4E-/	4AA-\	4cc/	4a-\	-go
=3	=3	=3	=3	=3
2E-/	4AA-\	(8cc/L	2a-\	Sa-
.	.	8dd/J)	.	.
.	4C\	4ee-/	.	.
4E-/	4AA-\	4cc/	4a-\	-cra-
=4	=4	=4	=4	=4
4E-/	4E-\	4cc/	4a-\	-men-
4E-/	4E-\	4b-/	4g\	-tum
4r	4ryy	4r	4ryy	.
=5	=5	=5	=5	=5
(4B-/	(4G\	2b-/	2b-\	ve-
4A-/)	4F\)	.	.	.
4G/	4E-\	4b-/	4b-\	-ne-
=6	=6	=6	=6	=6
4B-/	2E-\	(4gg/	2b-\	-re-
4A-/	.	4ff/)	.	.
4G/	4E-\	4ee-/	4b-\	-mur
=7	=7	=7	=7	=7
4F/	2BB-\	(4dd/	2b-\	cer-
4A-/	.	4ff/)	.	.
4G/	4BB-\	4ee-/	4b-\	-nu-
=8	=8	=8	=8	=8
2F/	2BB-\	2dd/	2b-\	-i.
4ryy	4r	4r	4ryy	.
!!LO:LB:g=original
=9	=9	=9	=9	=9
2E-/	2E-\	(4b-/	2g\	Et
.	.	4ee-/)	.	.
4E-/	4E-\	4dd/	4b-\	an-
=10	=10	=10	=10	=10
2E-/	2AA-\	(4dd/	(4b-\	-ti-
.	.	4cc/)	4a-\)	.
4E-/	4AA-\	4cc/	4a-\	-quum
=11	=11	=11	=11	=11
2E-/	4AA-\	(8cc/L	2a-\	do-
.	.	8dd/J)	.	.
.	4C\	4ee-/	.	.
4E-/	4AA-\	4cc/	4a-\	-cu-
=12	=12	=12	=12	=12
4E-/	4E-\	4cc/	4a-\	-men-
4E-/	4E-\	4b-/	4g\	-tum
4r	4ryy	4r	4ryy	.
=13	=13	=13	=13	=13
2F/	(>4E-\	4cc/	4an\	no-
.	4D\)	4dd/	4b-\	.
4F 4C/	4C\	4ee-/	4b-\	-vo
=14	=14	=14	=14	=14
4F/	4D\	4ff/	2b-\	ce-
4B-/	4G\	4b-/	.	.
4G/	4E-\	4ee-/	4cc\	-dat
=15	=15	=15	=15	=15
2F/	2F\	2dd/	2b-\	ri-
4F/	4FF\	4cc/	4an\	-tu-
=16	=16	=16	=16	=16
2D/	2BB-\	2b-/	2b-\	-i
4ryy	4r	4r	4ryy	.
!!LO:LB:g=original
=17	=17	=17	=17	=17
!	!	!	!LO:N:vis=2	!
4B-/	4BB-\	(4b-/	2.b-\	Pres-
4A-X/	4D\	4ff/)	.	.
4G/	4E-\	4ee-/	.	-tet
=18	=18	=18	=18	=18
4G/	4BB-\	4ee-/	4b-\	fi-
4F/	4BB-\	4dd/	4b-\	-des
4r	4ryy	4r	4ryy	.
=19	=19	=19	=19	=19
2B-/	2BB-\	(4b-/	2b-\	sup-
.	.	4gg/)	.	.
4A-/	4D\	4ff/	4ryy	-ple-
=20	=20	=20	=20	=20
4A- 4E-/	4E-\	4ff 4b-/	4b-\	-men-
4G/	4E-\	4ee-/	4b-\	-tum
4r	4ryy	4r	4ryy	.
=21	=21	=21	=21	=21
2B-/	2E-\	2gg/	(4ee-\	sen-
.	.	.	4dd\)	.
4B-/	4E-\	4gg/	4dd-X\	su-
=22	=22	=22	=22	=22
2A-/	2AA-\	(4aa-/	2cc\	-um
.	.	4cc/)	.	.
4A-/	4AA-\	4ff/	4cc\	de-
=23	=23	=23	=23	=23
2G/	2BB-\	2ee-/	2b-\	-fe-
4B-/	4BB-\	4ff/	4ddn\	-ctu-
=24	=24	=24	=24	=24
!LO:N:vis=2.	!LO:N:vis=2.	!LO:N:vis=2.	!LO:N:vis=2.	!
2B-/	2E-\	2gg/	2ee-\	-i
4r	4ryy	4r	4ryy	.
!!LO:LB:g=original
=25	=25	=25	=25	=25
2B-/	2E-\	2gg/	4ee-\	sen-
.	.	.	4dd\	.
4B-/	4E-\	4gg/	4dd-X\	-su-
=26	=26	=26	=26	=26
2A-/	2AA-\	(4aa-/	2cc\	-um
.	.	4cc/)	.	.
4A-/	4AA-\	(8gg/L	4cc\	de-
.	.	8ff/J)	.	.
=27	=27	=27	=27	=27
2G/	2BB-\	2ee-/	2b-\	-fe-
4F/	4BB-\	4dd/	4b-\	-ctu-
=28	=28	=28	=28	=28
2G/	2E-\	2ee-/	2b-\	-i
4r	4ryy	4ryy	4r	.
*v	*v	*	*	*
*	*v	*v	*
==	==	==
*-	*-	*-
!!!system-decoration: {(s1,s2)}
!!!RDF**kern: i = editorial accidental
!!!RDF**kern: > = above
!!!RDF**kern: < = below
!!!RDF**kern: N = linked
!!!RDF**dynam: > = "dim.", fontstyle= "italic"
!!!ENC: Andrzej Gręziak
!!!EED: Katarzyna Serwa
!!!END: 2023-10-27
!!!EEV: 2024-04-20
